img/logo.svg

<svg  viewBox="0 0 190 44" fill="none" xmlns="http://www.w3.org/2000/svg">
<path d="M24.7576 10.0263C26.5568 10.0984 30.875 9.6656 32.2424 10.5312C33.8977 11.541 34.3295 14.2099 33.178 15.7967C31.9545 17.5279 29.3636 17.2394 27.1326 17.2394C24.7576 17.2394 22.3826 17.2394 20.0076 17.2394C17.9924 20.341 15.9773 23.4427 13.9621 26.6164C18.2803 26.7607 23.1023 26.6164 27.3485 26.6164C29.1477 26.6164 31.8826 26.4 32.7462 27.482C34.0417 28.8525 34.1136 30.7279 33.178 32.3148C32.1705 34.0459 30.2273 33.9017 28.428 33.9017C24.6856 33.9017 11.0114 33.9738 9.21212 33.9738C7.19697 37.0033 5.25379 40.0328 3.31061 43.0623C8.7803 43.0623 14.178 43.1345 19.2879 43.1345C23.3182 43.1345 31.1629 43.5672 34.6894 42.4131C40.7348 40.3935 44.2614 33.4689 42.8939 27.482C42.1742 24.0918 41.8864 24.5968 40.303 21.9279C41.6705 19.4754 42.6061 18.8984 43.0379 15.7246C44.1174 8.29511 38.7917 1.15413 30.7311 0.865601C29.6515 2.45249 25.9091 8.22298 24.7576 10.0263Z" fill="url(#paint0_linear)"/>
<path d="M3.31061 43.0623C5.25379 40.0328 7.19697 37.0033 9.21212 33.9738V26.6885H13.9621C14.4659 25.8951 19.7917 17.6721 20.0076 17.3115L9.21212 17.2394L9.35606 10.0984L24.7576 10.0262C25.9811 8.15084 29.6515 2.45247 30.7311 0.793457H0V43.0623H3.31061Z" fill="url(#paint1_linear)"/>
<path d="M87.7311 40.0327H90.6098V41.4754H85.9318V34.1901H87.6591V40.0327H87.7311Z" fill="#2B2A29"/>
<path d="M93.0568 34.0459V35.6328H91.4735V34.0459H93.0568ZM93.0568 36.0656V41.4754H91.4735V36.0656H93.0568Z" fill="#2B2A29"/>
<path d="M96.0076 37.2918V41.4754H94.4242V37.2918H93.7765V36.0655H94.4242C94.4242 35.4885 94.4962 35.1278 94.5682 34.8393C94.6401 34.5508 94.8561 34.3344 95.1439 34.1901C95.4318 33.9737 95.8636 33.9016 96.3674 33.9016C96.5833 33.9016 96.7992 33.9016 97.0871 33.9737V35.2C96.8712 35.2 96.6553 35.2 96.5114 35.2C96.2955 35.2 96.1515 35.2721 96.0795 35.3442C96.0076 35.4885 96.0076 35.6328 96.0076 35.9213V36.0655H97.0152V37.2918H96.0076Z" fill="#2B2A29"/>
<path d="M102.629 39.023H99.1742C99.1742 39.0951 99.1742 39.2393 99.1742 39.2393C99.1742 39.6 99.2462 39.8885 99.4621 40.1049C99.678 40.3213 99.8939 40.3934 100.182 40.3934C100.686 40.3934 101.045 40.1049 101.117 39.5279L102.557 39.6C102.125 40.8262 101.333 41.4754 100.11 41.4754C99.6061 41.4754 99.1023 41.3312 98.7424 41.1869C98.3826 40.9705 98.0227 40.682 97.8068 40.2492C97.5909 39.8164 97.447 39.3115 97.447 38.7344C97.447 37.8689 97.6629 37.1475 98.1667 36.6426C98.6704 36.1377 99.3182 35.8492 100.038 35.8492C100.758 35.8492 101.333 36.0656 101.837 36.5705C102.413 37.2197 102.629 38.0131 102.629 39.023ZM99.1742 38.1574H101.117C101.045 37.4361 100.758 37.0754 100.182 37.0754C99.5341 37.0033 99.2462 37.3639 99.1742 38.1574Z" fill="#2B2A29"/>
<path d="M113.568 36.0656L111.913 41.4754H110.473L109.61 38.0131L108.746 41.4754H107.379L105.795 36.0656H107.451L108.314 39.3836L109.178 36.0656H110.617L111.409 39.3836L112.345 36.0656H113.568Z" fill="#2B2A29"/>
<path d="M115.871 34.0459V35.6328H114.288V34.0459H115.871ZM115.871 36.0656V41.4754H114.288V36.0656H115.871Z" fill="#2B2A29"/>
<path d="M118.966 37.2918V39.6C118.966 39.8885 119.038 40.1049 119.11 40.177C119.182 40.2492 119.398 40.3213 119.686 40.3213C119.83 40.3213 119.973 40.3213 120.189 40.3213V41.4754C119.758 41.5475 119.398 41.6197 119.182 41.6197C118.534 41.6197 118.03 41.4754 117.742 41.259C117.455 40.9705 117.311 40.5377 117.311 39.8885V37.3639H116.447V36.0656H117.383L117.527 34.4787L118.894 34.4066V36.0656H120.045V37.2918H118.966Z" fill="#2B2A29"/>
<path d="M122.636 34.1902V36.7869C122.924 36.2099 123.428 35.9213 124.076 35.9213C124.436 35.9213 124.723 35.9935 125.011 36.1377C125.299 36.282 125.443 36.4984 125.587 36.7869C125.659 37.0033 125.731 37.4361 125.731 37.8689V41.4754H124.148V38.4459C124.148 38.0853 124.148 37.7967 124.076 37.7246C124.076 37.5804 124.004 37.5082 123.86 37.364C123.716 37.2197 123.644 37.2197 123.5 37.2197C123.284 37.2197 123.068 37.2918 122.924 37.4361C122.708 37.5803 122.636 37.941 122.636 38.4459V41.4754H121.053V34.1902H122.636Z" fill="#2B2A29"/>
<path d="M134.511 39.4557C134.439 40.1049 134.223 40.6098 133.72 41.0426C133.288 41.4033 132.712 41.6197 131.992 41.6197C131.201 41.6197 130.625 41.4033 130.121 40.8262C129.617 40.3213 129.402 39.6721 129.402 38.8066C129.402 37.941 129.617 37.2918 130.121 36.7148C130.625 36.2098 131.273 35.9213 132.064 35.9213C132.712 35.9213 133.288 36.1377 133.72 36.4984C134.152 36.859 134.367 37.3639 134.439 38.0131L132.928 38.0853C132.856 37.4361 132.568 37.0754 132.064 37.0754C131.417 37.0754 131.129 37.5803 131.129 38.6623C131.129 39.3836 131.201 39.8164 131.417 39.9607C131.561 40.1771 131.777 40.2492 132.064 40.2492C132.568 40.2492 132.856 39.9607 132.928 39.3115L134.511 39.4557Z" fill="#2B2A29"/>
<path d="M136.886 41.4754H135.303V36.0656H136.742V37.0754C136.958 36.3541 137.39 35.9213 137.894 35.9213C137.966 35.9213 138.038 35.9213 138.182 35.9213V37.5082C137.822 37.5082 137.606 37.5803 137.39 37.6525C137.174 37.7246 137.03 37.941 136.958 38.1574C136.814 38.4459 136.814 38.7344 136.814 39.2394V41.4754H136.886Z" fill="#2B2A29"/>
<path d="M143.58 36.0656L141.852 41.259C141.636 41.836 141.492 42.2688 141.348 42.4852C141.205 42.7016 140.989 42.918 140.773 43.1344C140.557 43.2787 140.197 43.3508 139.693 43.3508C139.477 43.3508 139.189 43.3508 138.902 43.2787V42.0524C139.189 42.1246 139.477 42.1246 139.693 42.1246C139.981 42.1246 140.197 42.0524 140.341 41.9803C140.485 41.9082 140.557 41.6918 140.557 41.4754L138.614 36.0656H140.269L141.277 39.3115L142.284 36.0656H143.58Z" fill="#2B2A29"/>
<path d="M144.299 43.3508V36.0656H145.739V36.859C146.027 36.282 146.458 35.9213 147.178 35.9213C147.754 35.9213 148.258 36.1377 148.617 36.6426C148.977 37.1476 149.193 37.7967 149.193 38.6623C149.193 39.6 148.977 40.3213 148.617 40.8262C148.258 41.3312 147.754 41.5476 147.178 41.5476C146.602 41.5476 146.098 41.3312 145.883 40.8262V43.2787H144.299V43.3508ZM145.811 39.0951C145.811 39.4557 145.811 39.7443 145.883 39.8885C145.955 40.0328 146.027 40.1771 146.17 40.2492C146.314 40.3935 146.458 40.3935 146.674 40.3935C146.89 40.3935 147.106 40.2492 147.25 40.0328C147.394 39.8164 147.538 39.3115 147.538 38.5902C147.538 37.5082 147.25 37.0033 146.674 37.0033C146.458 37.0033 146.242 37.0754 146.098 37.2918C145.955 37.5082 145.811 37.7967 145.811 38.2295V39.0951Z" fill="#2B2A29"/>
<path d="M152.072 37.2918V39.6C152.072 39.8885 152.144 40.1049 152.216 40.177C152.288 40.2492 152.504 40.3213 152.792 40.3213C152.936 40.3213 153.08 40.3213 153.295 40.3213V41.4754C152.864 41.5475 152.504 41.6197 152.288 41.6197C151.64 41.6197 151.136 41.4754 150.848 41.259C150.561 40.9705 150.417 40.5377 150.417 39.8885V37.3639H149.553V36.0656H150.489L150.633 34.4787L152 34.4066V36.0656H153.152V37.2918H152.072Z" fill="#2B2A29"/>
<path d="M156.318 35.9935C157.11 35.9935 157.758 36.282 158.261 36.7869C158.693 37.364 158.981 38.0131 158.981 38.8066C158.981 39.6 158.765 40.2492 158.261 40.8263C157.758 41.3312 157.11 41.6197 156.318 41.6197C155.527 41.6197 154.951 41.3312 154.447 40.8263C154.015 40.3213 153.727 39.6 153.727 38.8066C153.727 38.2295 153.799 37.7246 154.015 37.364C154.231 37.0033 154.519 36.6426 154.879 36.4263C155.311 36.0656 155.742 35.9935 156.318 35.9935ZM156.39 37.0033C156.102 37.0033 155.886 37.1476 155.742 37.364C155.598 37.5804 155.527 38.0853 155.527 38.7344C155.527 39.3836 155.598 39.8164 155.742 40.1049C155.886 40.3935 156.102 40.5377 156.39 40.5377C156.678 40.5377 156.894 40.3935 157.038 40.1771C157.182 39.9607 157.254 39.4558 157.254 38.8066C157.254 38.0853 157.182 37.5804 157.038 37.364C156.894 37.1476 156.678 37.0033 156.39 37.0033Z" fill="#2B2A29"/>
<path d="M78.5189 13.9213C77.9432 12.9836 77.1515 12.118 76.1439 11.4688C76.6477 11.0361 77.0076 10.5311 77.2955 9.95409C77.7273 9.16064 77.9432 8.15081 77.9432 7.14097C77.9432 5.04917 77.2955 3.39015 75.928 2.30819C74.6326 1.22622 72.7614 0.64917 70.2424 0.64917H55.6326V25.6065H71.0341C73.625 25.6065 75.7121 24.8852 77.2955 23.5147C78.8788 22.1443 79.6705 20.1967 79.6705 17.8885C79.5265 16.4459 79.1667 15.0754 78.5189 13.9213ZM71.5379 21.7836H59.5909V13.9213H71.5379C72.7614 13.9213 73.697 14.282 74.3447 14.9311C75.0644 15.6524 75.3523 16.5902 75.3523 17.8164C75.3523 19.0426 74.9924 20.0524 74.3447 20.7016C73.697 21.4229 72.7614 21.7836 71.5379 21.7836ZM59.5909 4.47212H70.4583C71.6098 4.47212 72.4735 4.68851 72.9773 5.19343C73.4811 5.62622 73.7689 6.34753 73.7689 7.35737C73.7689 8.29507 73.4811 8.94425 72.9773 9.37704C72.4015 9.88196 71.5379 10.0983 70.4583 10.0983H59.5909V4.47212Z" fill="#2B2A29"/>
<path d="M103.133 21.8557V25.6066H83.9886V6.05902H102.341V9.80984H87.947V13.3443H97.447V17.0951H87.947V21.8557H103.133Z" fill="#2B2A29"/>
<path d="M110.689 4.47212V10.3869H120.261V14.2098H110.689V25.6065H106.659V0.64917H126.451V4.47212H110.689Z" fill="#2B2A29"/>
<path d="M139.621 17.3115C140.773 17.023 141.708 16.3738 142.428 15.5082C143.364 14.4262 143.795 13.2 143.795 11.7574C143.795 9.9541 143.22 8.58361 141.996 7.57377C140.845 6.56394 139.261 6.05902 137.246 6.05902H124.004V25.6066H127.962V17.5279H135.159L140.413 25.6066H144.803L139.621 17.3115ZM128.034 9.80984H137.318C138.182 9.80984 138.83 9.9541 139.261 10.3148C139.621 10.6033 139.837 11.1082 139.837 11.7574C139.837 12.4066 139.621 12.8393 139.261 13.2C138.83 13.5607 138.182 13.7049 137.318 13.7049H128.034V9.80984Z" fill="#2B2A29"/>
<path d="M167.186 21.8557V25.6066H148.042V6.05902H166.394V9.80984H152V13.3443H161.428V17.0951H152V21.8557H167.186Z" fill="#2B2A29"/>
<path d="M189.424 21.8557V25.6066H170.208V6.05902H188.561V9.80984H174.167V13.3443H183.667V17.0951H174.167V21.8557H189.424Z" fill="#2B2A29"/>
<defs>
<linearGradient id="paint0_linear" x1="35.2703" y1="37.6518" x2="7.04114" y2="9.73535" gradientUnits="userSpaceOnUse">
<stop stop-color="#7742CC"/>
<stop offset="1" stop-color="#338FFF"/>
</linearGradient>
<linearGradient id="paint1_linear" x1="24.6244" y1="36.1808" x2="2.18008" y2="1.78509" gradientUnits="userSpaceOnUse">
<stop stop-color="#57D5FF"/>
<stop offset="1" stop-color="#67F581"/>
</linearGradient>
</defs>
</svg>

<svg viewBox="0 0 190 44" fill="none" xmlns="http://www.w3.org/2000/svg"><path d="M24.758 10.026c1.799.072 6.117-.36 7.484.505 1.656 1.01 2.088 3.679.936 5.266-1.223 1.73-3.814 1.442-6.045 1.442h-7.125a1062.03 1062.03 0 00-6.046 9.377c4.318.145 9.14 0 13.387 0 1.799 0 4.534-.216 5.397.866 1.296 1.37 1.368 3.246.432 4.833-1.008 1.73-2.95 1.587-4.75 1.587-3.742 0-17.417.072-19.216.072-2.015 3.03-3.958 6.059-5.901 9.088 5.47 0 10.867.073 15.977.073 4.03 0 11.875.432 15.401-.722 6.046-2.02 9.572-8.944 8.205-14.931-.72-3.39-1.008-2.885-2.591-5.554 1.367-2.453 2.303-3.03 2.735-6.203 1.08-7.43-4.246-14.57-12.307-14.86-1.08 1.587-4.822 7.358-5.973 9.161z" fill="url(#paint0_linear)"/><path d="M3.31 43.062c1.944-3.03 3.887-6.059 5.902-9.088v-7.285h4.75c.504-.794 5.83-9.017 6.046-9.378L9.212 17.24l.144-7.14 15.402-.073C25.98 8.151 29.65 2.452 30.73.793H0v42.27h3.31z" fill="url(#paint1_linear)"/><path d="M87.731 40.033h2.879v1.442h-4.678V34.19h1.727v5.843h.072zm5.326-5.987v1.587h-1.584v-1.587h1.584zm0 2.02v5.41h-1.584v-5.41h1.584zm2.951 1.226v4.183h-1.584v-4.183h-.648v-1.227h.648c0-.576.072-.937.144-1.226.072-.288.288-.505.576-.649.288-.216.72-.288 1.223-.288.216 0 .432 0 .72.072V35.2h-.576c-.215 0-.36.072-.431.144-.072.145-.072.289-.072.577v.145h1.007v1.226h-1.007zm6.621 1.731h-3.455v.216c0 .361.072.65.288.866.216.216.432.288.72.288.504 0 .863-.288.935-.865l1.44.072c-.432 1.226-1.224 1.875-2.447 1.875-.504 0-1.008-.144-1.368-.288-.36-.216-.72-.505-.935-.938a3.36 3.36 0 01-.36-1.515c0-.865.216-1.587.72-2.091a2.61 2.61 0 011.871-.794c.72 0 1.295.217 1.799.722.576.649.792 1.442.792 2.452zm-3.455-.866h1.943c-.072-.72-.359-1.082-.935-1.082-.648-.072-.936.289-1.008 1.082zm14.394-2.091l-1.655 5.41h-1.44l-.863-3.463-.864 3.462h-1.367l-1.584-5.41h1.656l.863 3.319.864-3.318h1.439l.792 3.318.936-3.318h1.223zm2.303-2.02v1.587h-1.583v-1.587h1.583zm0 2.02v5.41h-1.583v-5.41h1.583zm3.095 1.226V39.6c0 .288.072.505.144.577.072.072.288.144.576.144h.503v1.154c-.431.072-.791.145-1.007.145-.648 0-1.152-.145-1.44-.361-.287-.288-.431-.721-.431-1.37v-2.525h-.864v-1.298h.936l.144-1.587 1.367-.072v1.659h1.151v1.226h-1.079zm3.67-3.102v2.597c.288-.577.792-.866 1.44-.866.36 0 .647.072.935.217.288.144.432.36.576.649.072.216.144.65.144 1.082v3.606h-1.583v-3.03c0-.36 0-.648-.072-.72 0-.145-.072-.217-.216-.361-.144-.144-.216-.144-.36-.144a.817.817 0 00-.576.216c-.216.144-.288.505-.288 1.01v3.03h-1.583V34.19h1.583zm11.875 5.266c-.072.649-.288 1.154-.791 1.587-.432.36-1.008.577-1.728.577-.791 0-1.367-.217-1.871-.794-.504-.505-.719-1.154-.719-2.02 0-.865.215-1.514.719-2.091a2.656 2.656 0 011.943-.794c.648 0 1.224.217 1.656.577.432.361.647.866.719 1.515l-1.511.072c-.072-.649-.36-1.01-.864-1.01-.647 0-.935.505-.935 1.587 0 .722.072 1.154.288 1.299.144.216.36.288.647.288.504 0 .792-.288.864-.938l1.583.145zm2.375 2.019h-1.583v-5.41h1.439v1.01c.216-.72.648-1.154 1.152-1.154h.288v1.587c-.36 0-.576.072-.792.145-.216.072-.36.288-.432.504-.144.289-.144.577-.144 1.082v2.236h.072zm6.694-5.409l-1.728 5.193c-.216.577-.36 1.01-.504 1.226-.143.217-.359.433-.575.65-.216.144-.576.216-1.08.216-.216 0-.504 0-.791-.072v-1.227c.287.073.575.073.791.073.288 0 .504-.073.648-.145.144-.072.216-.288.216-.505l-1.943-5.41h1.655l1.008 3.247 1.007-3.246h1.296zm.719 7.284v-7.284h1.44v.793c.288-.577.719-.938 1.439-.938.576 0 1.08.217 1.439.722.36.505.576 1.154.576 2.02 0 .937-.216 1.658-.576 2.163-.359.505-.863.722-1.439.722-.576 0-1.08-.217-1.295-.722v2.453h-1.584v.072zm1.512-4.255c0 .36 0 .65.072.794.072.144.144.288.287.36.144.145.288.145.504.145.216 0 .432-.145.576-.361.144-.217.288-.721.288-1.443 0-1.082-.288-1.587-.864-1.587-.216 0-.432.072-.576.289a1.615 1.615 0 00-.287.938v.865zm6.261-1.803V39.6c0 .288.072.505.144.577.072.072.288.144.576.144h.503v1.154c-.431.072-.791.145-1.007.145-.648 0-1.152-.145-1.44-.361-.287-.288-.431-.721-.431-1.37v-2.525h-.864v-1.298h.936l.144-1.587 1.367-.072v1.659h1.152v1.226h-1.08zm4.246-1.299c.792 0 1.44.289 1.943.794.432.577.72 1.226.72 2.02 0 .793-.216 1.442-.72 2.02-.503.504-1.151.793-1.943.793-.791 0-1.367-.289-1.871-.794-.432-.505-.72-1.226-.72-2.02 0-.576.072-1.081.288-1.442.216-.36.504-.721.864-.938.432-.36.863-.433 1.439-.433zm.072 1.01a.756.756 0 00-.648.361c-.144.216-.215.721-.215 1.37 0 .65.071 1.082.215 1.37.144.29.36.434.648.434a.756.756 0 00.648-.36c.144-.217.216-.722.216-1.371 0-.722-.072-1.227-.216-1.443a.756.756 0 00-.648-.36zM78.519 13.921a7.696 7.696 0 00-2.375-2.452c.504-.433.864-.938 1.151-1.515.432-.793.648-1.803.648-2.813 0-2.092-.647-3.75-2.015-4.833C74.633 1.226 72.761.65 70.242.65h-14.61v24.957h15.402c2.591 0 4.678-.72 6.261-2.091 1.584-1.37 2.376-3.318 2.376-5.627-.145-1.442-.504-2.813-1.152-3.967zm-6.981 7.863H59.59V13.92h11.947c1.223 0 2.159.361 2.807 1.01.72.721 1.007 1.66 1.007 2.885 0 1.227-.36 2.236-1.007 2.886-.648.72-1.584 1.082-2.807 1.082zM59.59 4.472h10.867c1.152 0 2.016.217 2.52.721.503.433.79 1.155.79 2.164 0 .938-.287 1.587-.79 2.02-.576.505-1.44.721-2.52.721H59.591V4.472zm43.543 17.384v3.75H83.989V6.06h18.352v3.75H87.947v3.535h9.5v3.751h-9.5v4.76h15.186zm7.556-17.384v5.915h9.572v3.823h-9.572v11.396h-4.03V.65h19.792v3.823h-15.762z" fill="#2B2A29"/><path d="M139.621 17.311c1.152-.288 2.087-.937 2.807-1.803.936-1.082 1.367-2.308 1.367-3.75 0-1.804-.575-3.174-1.799-4.184-1.151-1.01-2.735-1.515-4.75-1.515h-13.242v19.548h3.958v-8.08h7.197l5.254 8.08h4.39l-5.182-8.296zM128.034 9.81h9.284c.864 0 1.512.144 1.943.505.36.288.576.793.576 1.442 0 .65-.216 1.082-.576 1.443-.431.36-1.079.505-1.943.505h-9.284V9.81zm39.152 12.046v3.75h-19.144V6.06h18.352v3.75H152v3.535h9.428v3.751H152v4.76h15.186zm22.238 0v3.75h-19.216V6.06h18.353v3.75h-14.394v3.535h9.5v3.751h-9.5v4.76h15.257z" fill="#2B2A29"/><defs><linearGradient id="paint0_linear" x1="35.27" y1="37.652" x2="7.041" y2="9.735" gradientUnits="userSpaceOnUse"><stop stop-color="#7742CC"/><stop offset="1" stop-color="#338FFF"/></linearGradient><linearGradient id="paint1_linear" x1="24.624" y1="36.181" x2="2.18" y2="1.785" gradientUnits="userSpaceOnUse"><stop stop-color="#57D5FF"/><stop offset="1" stop-color="#67F581"/></linearGradient></defs></svg>
